svg/editor/list_expansion_line.svg

<?xml version="1.0" encoding="UTF-8"?>
<svg width="24px" height="24px" viewBox="0 0 24 24" version="1.1" xmlns="http://www.w3.org/2000/svg" xmlns:xlink="http://www.w3.org/1999/xlink">
    <title>list_expansion_line</title>
    <g id="Icon" stroke="none" stroke-width="1" fill="none" fill-rule="evenodd">
        <g id="Editor" transform="translate(-624.000000, -192.000000)" fill-rule="nonzero">
            <g id="list_expansion_line" transform="translate(624.000000, 192.000000)">
                <path d="M24,0 L24,24 L0,24 L0,0 L24,0 Z M12.5934901,23.257841 L12.5819402,23.2595131 L12.5108777,23.2950439 L12.4918791,23.2987469 L12.4918791,23.2987469 L12.4767152,23.2950439 L12.4056548,23.2595131 C12.3958229,23.2563662 12.3870493,23.2590235 12.3821421,23.2649074 L12.3780323,23.275831 L12.360941,23.7031097 L12.3658947,23.7234994 L12.3769048,23.7357139 L12.4804777,23.8096931 L12.4953491,23.8136134 L12.4953491,23.8136134 L12.5071152,23.8096931 L12.6106902,23.7357139 L12.6232938,23.7196733 L12.6232938,23.7196733 L12.6266527,23.7031097 L12.609561,23.275831 C12.6075724,23.2657013 12.6010112,23.2592993 12.5934901,23.257841 L12.5934901,23.257841 Z M12.8583906,23.1452862 L12.8445485,23.1473072 L12.6598443,23.2396597 L12.6498822,23.2499052 L12.6498822,23.2499052 L12.6471943,23.2611114 L12.6650943,23.6906389 L12.6699349,23.7034178 L12.6699349,23.7034178 L12.678386,23.7104931 L12.8793402,23.8032389 C12.8914285,23.8068999 12.9022333,23.8029875 12.9078286,23.7952264 L12.9118235,23.7811639 L12.8776777,23.1665331 C12.8752882,23.1545897 12.8674102,23.1470016 12.8583906,23.1452862 L12.8583906,23.1452862 Z M12.1430473,23.1473072 C12.1332178,23.1423925 12.1221763,23.1452606 12.1156365,23.1525954 L12.1099173,23.1665331 L12.0757714,23.7811639 C12.0751323,23.7926639 12.0828099,23.8018602 12.0926481,23.8045676 L12.108256,23.8032389 L12.3092106,23.7104931 L12.3186497,23.7024347 L12.3186497,23.7024347 L12.3225043,23.6906389 L12.340401,23.2611114 L12.337245,23.2485176 L12.337245,23.2485176 L12.3277531,23.2396597 L12.1430473,23.1473072 Z" id="MingCute"></path>
                <path d="M4,4 C3.44772,4 3,4.44772 3,5 C3,5.55228 3.44772,6 4,6 L12,6 C12.5523,6 13,5.55228 13,5 C13,4.44772 12.5523,4 12,4 L4,4 Z M20.8371,5.60607 C20.9687,5.34859 20.7746,5.05006 20.4579,5.02272 L19.8919665,4.98059523 L19.8919665,4.98059523 L19.4281375,4.95515124 L19.4281375,4.95515124 L18.9009845,4.93526203 L18.9009845,4.93526203 L18.3155715,4.92387913 L18.3155715,4.92387913 L17.7068589,4.92366446 L17.7068589,4.92366446 L17.1513623,4.93379819 L17.1513623,4.93379819 L16.6473926,4.9517383 L16.6473926,4.9517383 L15.99736,4.98786111 L15.99736,4.98786111 L15.4872,5.0276 L15.4872,5.0276 C15.1905,5.054 15.0257,5.32614 15.1547,5.57959 L15.3054264,5.86858144 L15.3054264,5.86858144 L15.4944712,6.21459832 L15.4944712,6.21459832 L15.7225928,6.61268848 C15.7639116,6.68310116 15.8068902,6.75547722 15.8515444,6.82971349 L16.1397032,7.29662827 L16.1397032,7.29662827 L16.4617143,7.79250509 L16.4617143,7.79250509 L16.7726521,8.24811043 C16.8226698,8.31964974 16.8717124,8.38896532 16.9196712,8.45601776 L17.1935488,8.83085944 L17.1935488,8.83085944 L17.4361976,9.14949408 L17.4361976,9.14949408 L17.6424,9.41003 L17.6424,9.41003 C17.8245,9.63585 18.1715,9.6453 18.3456,9.43055 L18.6723549,9.01531133 L18.6723549,9.01531133 L18.9352875,8.66445375 L18.9352875,8.66445375 L19.2273921,8.25727657 C19.379751,8.0400232 19.54083,7.802584 19.7073,7.54636 L19.8626889,7.30404492 L19.8626889,7.30404492 L20.1447783,6.84708124 L20.1447783,6.84708124 L20.3890125,6.431315 C20.42659,6.365741 20.46261,6.302099 20.4970824,6.24049672 L20.6854248,5.89622144 L20.6854248,5.89622144 L20.8371,5.60607 L20.8371,5.60607 Z M20.8371,15.606 C20.9687,15.3485 20.7746,15.0499 20.4579,15.0226 L19.8919665,14.9804701 L19.8919665,14.9804701 L19.4281375,14.9550375 L19.4281375,14.9550375 L18.9009845,14.9351609 L18.9009845,14.9351609 L18.3155715,14.9237826 L18.3155715,14.9237826 L17.7068589,14.9235615 L17.7068589,14.9235615 L17.1513623,14.933689 L17.1513623,14.933689 L16.6473926,14.9516241 L16.6473926,14.9516241 L16.1992054,14.9748893 L16.1992054,14.9748893 L15.6408254,15.0143615 C15.5868198,15.0187942 15.5355818,15.0231909 15.4872,15.0275 C15.1905,15.0539 15.0257,15.326 15.1547,15.5795 L15.3054264,15.8684608 L15.3054264,15.8684608 L15.4944712,16.2144744 L15.4944712,16.2144744 L15.7225928,16.6125776 C15.7639116,16.6829932 15.8068902,16.7553724 15.8515444,16.8296118 L16.1397032,17.2965434 L16.1397032,17.2965434 L16.2991,17.5452 C16.40888,17.71424 16.516064,17.87486 16.6197824,18.0267448 L16.9196712,18.4558784 L16.9196712,18.4558784 L17.1935488,18.8307096 L17.1935488,18.8307096 L17.4361976,19.1493472 L17.4361976,19.1493472 L17.6424,19.4099 L17.6424,19.4099 C17.8245,19.6357 18.1715,19.6452 18.3456,19.4304 L18.6723549,19.015185 L18.6723549,19.015185 L18.9352875,18.664325 L18.9352875,18.664325 L19.2273921,18.257137 C19.379751,18.039877 19.54083,17.80243 19.7073,17.5462 L20.0084952,17.0705888 L20.0084952,17.0705888 L20.2715976,16.6335984 C20.3530024,16.4949456 20.4281376,16.3635904 20.4970824,16.2403936 L20.6854248,15.8961392 L20.6854248,15.8961392 L20.8371,15.606 L20.8371,15.606 Z M3,12 C3,11.4477 3.44772,11 4,11 L12,11 C12.5523,11 13,11.4477 13,12 C13,12.5523 12.5523,13 12,13 L4,13 C3.44772,13 3,12.5523 3,12 Z M4,18 C3.44772,18 3,18.4477 3,19 C3,19.5523 3.44772,20 4,20 L12,20 C12.5523,20 13,19.5523 13,19 C13,18.4477 12.5523,18 12,18 L4,18 Z" id="形状" fill="#09244B"></path>
            </g>
        </g>
    </g>
</svg>

<svg xmlns="http://www.w3.org/2000/svg" width="24" height="24"><g fill="none" fill-rule="nonzero"><path d="M24 0v24H0V0h24ZM12.593 23.258l-.011.002-.071.035-.02.004-.014-.004-.071-.035c-.01-.004-.019-.001-.024.005l-.004.01-.017.428.005.02.01.013.104.074.015.004.012-.004.104-.074.012-.016.004-.017-.017-.427c-.002-.01-.009-.017-.017-.018Zm.265-.113-.013.002-.185.093-.01.01-.003.011.018.43.005.012.008.007.201.093c.012.004.023 0 .029-.008l.004-.014-.034-.614c-.003-.012-.01-.02-.02-.022Zm-.715.002a.023.023 0 0 0-.027.006l-.006.014-.034.614c0 .012.007.02.017.024l.015-.002.201-.093.01-.008.004-.011.017-.43-.003-.012-.01-.01-.184-.092Z"/><path fill="#09244B" d="M4 4a1 1 0 0 0 0 2h8a1 1 0 1 0 0-2H4Zm16.837 1.606c.132-.257-.062-.556-.38-.583l-.565-.042-.464-.026-.527-.02-.585-.011h-.61l-.555.01-.504.018-.65.036-.51.04c-.296.026-.461.298-.332.552l.15.289.19.346.228.398c.04.07.084.142.129.217l.288.467.322.496.31.455c.05.072.1.141.148.208l.274.375.242.318.206.261c.183.226.53.235.704.02l.326-.415.263-.35.292-.408c.153-.217.314-.454.48-.71l.156-.243.282-.457.244-.416.108-.19.188-.345.152-.29Zm0 10c.132-.258-.062-.556-.38-.583l-.565-.043-.464-.025-.527-.02-.585-.011h-.61l-.555.01-.504.018-.448.023-.558.04a22.24 22.24 0 0 0-.154.012c-.296.027-.461.299-.332.553l.15.288.19.346.228.399c.04.07.084.142.129.217l.288.467.16.248c.109.17.216.33.32.482l.3.429.274.375.242.318.206.26c.183.227.53.236.704.021l.326-.415.263-.35.292-.408c.153-.217.314-.455.48-.71l.301-.476.264-.437c.081-.14.156-.27.225-.394l.188-.344.152-.29ZM3 12a1 1 0 0 1 1-1h8a1 1 0 1 1 0 2H4a1 1 0 0 1-1-1Zm1 6a1 1 0 1 0 0 2h8a1 1 0 1 0 0-2H4Z"/></g></svg>
